X:1
T:Confitebor tibi Domine - Anon.
T:#
%%score [ 1 2 3 4 ]
L:1/8
Q:1/4=130
M:4/4
K:C
V:1 treble nm="Soprano" snm="S"
V:2 treble nm="Alto" snm="A"
V:3 treble-8 nm="Tenor" snm="T"
V:4 treble nm="Bass" snm="B"
V:1
 z18 | z16 ||[K:F][M:4/2][K:treble][Q:1/4=200][Q:1/4=200][Q:1/4=200][Q:1/4=200] G8 G4 G4- | %3
w: ||Ma- gna o\-|
 G2 G2 B4 B4 A4 | B4 B8 B4 | A8 A4 A4 | G8 ^F4 A4- | A4 A4 G4 G4- | G4 ^F4 G16 || %9
w: * pe- ra Do- mi-|ni: ex- qui-|si- ta in|o- mnes vo\-|* lun- ta- tes|* e- ius.|
[Q:1/4=130][Q:1/4=130][Q:1/4=130][Q:1/4=130] z18 | z16 || %11
w: ||
[Q:1/4=200][Q:1/4=200][Q:1/4=200][Q:1/4=200] G4 G6 G2 G4 | A8 B4 d4- | d4 c4 B6 B2 | B4 B4 A8 | %15
w: Me- mo- ri- am|fe- cit mi\-|* ra- bi- li-|um su- o-|
 A8 z4 B4 | A6 A2 c4 d4 |[M:4/2] B4 c4 d8 | c4 =B8 c4 | A8 z4 F4- | F4 G4 A8 | B4 A4 G8- | %22
w: rum, mi-|se- ri- cors et|mi- se- ra-|tor Do- mi-|nus: e\-|* scam de-|dit ti- men\-|
 G4 G4 ^F8 | G16 ||[Q:1/4=130][Q:1/4=130][Q:1/4=130][Q:1/4=130] z18 | z16 || %26
w: * ti- bus|se.|||
[M:4/2][Q:1/4=200][Q:1/4=200][Q:1/4=200][Q:1/4=200] d8 G8 | A8 G8 | z16 | z4 G4 G4 A4 | %30
w: Ut det|il- lis||hae- re- di-|
 F4 F4 B6 B2 | A8 A6 A2 | A4 G6 G2 A4 | B8 A4 A4- | A2 A2 A4 G4 F4 | E6 E2 D8 ||[M:3/2] D6 D2 D4 | %37
w: ta- tem Gen- ti-|um: o- pe-|ra ma- nu- um|e- ius ve\-|* ri- tas, et ju-|di- ci- um,|o- pe- ra|
 E6 E2 ^F4 | G8 =F4 | B6 B2 B4 || G4 G4 ^F6 F2 | G16 || %42
w: ma- nu- um|e- ius|ve- ri- tas,|et ju- di- ci-|um.|
[Q:1/4=130][Q:1/4=130][Q:1/4=130][Q:1/4=130] z18 | z16 || %44
w: ||
[Q:1/4=200][Q:1/4=200][Q:1/4=200][Q:1/4=200] B8 B4 B4 ||[M:3/2] A8 A4 | A8 B4 | G6 G2 A4 | %48
w: Re- dem- pti-|o- nem|mi- sit|Do- mi- nus|
 F6 F2 G4 || E8 D4 ^F4 |[M:4/2] ^F8 G4 G4 ||[M:3/2] G8 G4 | A8 B4 | G8 F4 | F8 F4 || B4 A4 G8 | %56
w: po- pu- lo|su- o: man-|da- vit, man-|da- vit|in ae-|ter- num|te- sta-|men- tum su-|
[M:4/2] A4 A4 A8 | B4 B8 A4 | G12 A4 | F12 G4 | ^F4 G4 (G4 F4) | G16 || %62
w: um, man- da-|vit in ae-|ter- num|te- sta-|men- tum su\- *|um.|
[Q:1/4=130][Q:1/4=130][Q:1/4=130][Q:1/4=130] z18 | z16 || %64
w: ||
[Q:1/4=200][Q:1/4=200][Q:1/4=200][Q:1/4=200] G6 G2 ^F4 G4 | G8 G4 A4- | A2 A2 A4 B4 B4 || %67
w: In- tel- le- ctus|bo- nus o\-|* mni- bus fa- ci-|
[M:3/2] G6 G2 G4 | (B8 A4) | B8 B4 | A6 A2 A4 | G8 G4 |[M:3/2] G4 G4 G4 | A6 A2 G4- | G4 E6 E2 | %75
w: en- ti- bus|e\- *|um: lau-|da- ti- o|e- ius|ma- net in|sae- cu- lum|* sae- cu-|
 D8 d4 | c6 c2 c4 | B8 c4 | A4 G4 A4 | B6 B2 A4 | G8 ^F4 | G16 || %82
w: li, lau-|da- ti- o|e- ius|ma- net in|sae- cu- lum|sae- cu-|li.|
[Q:1/4=130][Q:1/4=130][Q:1/4=130][Q:1/4=130] z20 | z16 || %84
w: ||
[Q:1/4=200][Q:1/4=200][Q:1/4=200][Q:1/4=200] G12 G4 | ^F8 F4 G4- | G4 G4 A6 A2 | B4 B4 B4 B4 | %88
w: Si- cut|e- rat in|* prin- ci- pi-|o, et nunc, et|
 A8 A8 | A4 A4 B4 B2 B2 |[M:4/2] G4 A4 F4 F4 | G8 A8 | %92
w: sem- per,|et in sae- cu- la|sae- cu- lo- rum,|A- men,|
[Q:1/4=198] A4[Q:1/4=195] A4[Q:1/4=192] G4[Q:1/4=189] G2[Q:1/4=188] G2 | %93
w: et in sae- cu- la|
[Q:1/4=185] A4[Q:1/4=182] B4[Q:1/4=179] G4[Q:1/4=177] G4- | %94
w: sae- cu- lo- rum,|
[Q:1/4=174] G4[Q:1/4=171] ^F4[Q:1/4=170] G16 |] %95
w: * A- men.|
V:2
 z18 | z16 ||[K:F][M:4/2][K:treble] D8 D4 _E4- | E2 _E2 D4 F4 F4 | F4 F8 F4 | F8 F4 F4 | %6
w: ||Ma- gna o\-|* pe- ra Do- mi-|ni: ex- qui-|si- ta in|
 D8 D4 F4- | F4 F4 _E4 E4 | D8 D16 || z18 | z16 || D4 D6 D2 E4 | F8 F4 F4- | F4 F4 F6 F2 | %14
w: o- mnes vo\-|* lun- ta- tes|e- ius.|||Me- mo- ri- am|fe- cit mi\-|* ra- bi- li-|
 G4 G4 E8 | ^F8 z4 =F4 | F6 F2 F4 F4 |[M:4/2] _E6 C2 F8 | F4 D8 _E4 | D8 z4 D4- | D4 D4 F8 | %21
w: um su- o-|rum, mi-|se- ri- cors et|mi- se- ra-|tor Do- mi-|nus: e\-|* scam de-|
 F8 _E4 E4- | E4 D4 D8 | D16 || z18 | z16 ||[M:4/2] z4 D4 E4 (G4- | G4 ^F4) G4 G4 | E8 F8 | %29
w: dit ti- men\-|* ti- bus|se.|||Ut det il\-|* * lis, Ut|det il-|
 E4 E4 E4 F4 | D4 C4 B,4 G,4 | C8 F6 F2 | F4 G6 G2 F4 | F8 F4 F4- | F2 F2 F4 E2 D2 D4- | %35
w: lis hae- re- di-|ta- tem Gen- ti-|um: o- pe-|ra ma- nu- um|e- ius ve\-|* ri- tas, et ju- di\-|
 D4 ^C4 D8 ||[M:3/2] F6 F2 F4 | E6 E2 D4 | D8 D4 | F6 F2 F4 || _E4 D4 D6 D2 | D16 || z18 | z16 || %44
w: * ci- um,|o- pe- ra|ma- nu- um|e- ius|ve- ri- tas,|et ju- di- ci-|um.|||
 D8 D4 D4 ||[M:3/2] F8 E4 | ^F8 G4 | E6 E2 F4 | D6 D2 D4 || (D4 ^C4) D4 D4 |[M:4/2] D8 D4 D4 || %51
w: Re- dem- pti-|o- nem|mi- sit|Do- mi- nus|po- pu- lo|su\- * o: man-|da- vit, man-|
[M:3/2] D8 E4 | F8 F4 | _E8 D4 | D8 D4 || D4 F8 E4 |[M:4/2] F4 F4 F8 | F4 F8 F4 | D8 E4 F4 | %59
w: da- vit|in ae-|ter- num|te- sta-|men- tum su-|um, man- da-|vit in ae-|ter- num te-|
 C8 D4 _E4 | D16 | D16 || z18 | z16 || D6 D2 D4 D4 | E8 E4 F4- | F2 F2 F4 F4 F4 || %67
w: sta- men- tum|su-|um.|||In- tel- le- ctus|bo- nus o\-|* mni- bus fa- ci-|
[M:3/2] _E6 E2 D4- | D4 F8 | F8 F4 | F6 F2 F4 | D8 E4 |[M:3/2] E4 D4 E4 | F6 F2 E4 | D8 ^C4 | %75
w: en- ti- bus|* e-|um: lau-|da- ti- o|e- ius|ma- net in|sae- cu- lum|sae- cu-|
 D8 F4 | F6 F2 F4 | D8 E4 | F4 G4 F4 | F6 F2 _E4- | E4 D6 D2 | D16 || z20 | z16 || D12 D4 | %85
w: li, lau-|da- ti- o|e- ius|ma- net in|sae- cu- lum|* sae- cu-|li.|||Si- cut|
 D8 D4 D4- | D4 E4 F6 F2 | F4 F4 F4 G4 | E8 ^F8 | ^F4 F4 G4 G2 G2 |[M:4/2] E4 F4 D4 F4- | %91
w: e- rat in|* prin- ci- pi-|o, et nunc, et|sem- per,|et in sae- cu- la|sae- cu- lo- rum,|
 F4 E4 F8 | F4 F4 E4 E2 E2 | F4 F4 _E4 D4 | D8 D16 |] %95
w: * A- men,|et in sae- cu- la|sae- cu- lo- rum,|A- men.|
V:3
[K:F]"^Confitebor tibi Domine""^Anonymous\n(C16th?)""^Psalm 111 (Vulgate 110)" F2 G2 B8 c2 B4 | %1
w: Con- fi- tebor~tibi,~Domine,~in~toto~corde me- o:|
 B8 A2 F2 G4 ||[M:4/2][K:treble-8] B8 B4 B4- | B2 B2 B4 c6 c2 | B4 d8 d4 | c8 c4 d4 | B8 A4 d4- | %7
w: in~consilio~justorum,~et~congrega- ti- o- ne.|Ma- gna o\-|* pe- ra Do- mi-|ni: ex- qui-|si- ta in|o- mnes vo\-|
 d4 d4 B4 c4 | A8 G16 || F2 G2 B8 c2 B4 | B8 A2 F2 G4 || =B4 B6 B2 c4 | c8 d8 | _B4 c4 d6 d2 | %14
w: * lun- ta- tes|e- ius.|Con- fes- sio~et~magnificentia~opus e- ius:|et~justitia~eius~manet~in~saeculum sae- cu- li.|Me- mo- ri- am|fe- cit|mi- ra- bi- li-|
 d4 d8 ^c4 | d8 z4 d4 | c6 c2 A4 B4 |[M:4/2][K:treble-8] G4 A4 B8 | A4 G8 G4 | ^F8 z4 A4- | %20
w: um su- o-|rum, mi-|se- ri- cors et|mi- se- ra-|tor Do- mi-|nus: e\-|
 A4 B4 (c8 | d8) B4 B4 | c4 B4 A8 | G16 || F2 G2 B8 c2 B4 | B8 A2 F2 G4 ||[M:4/2][K:treble-8] z16 | %27
w: * scam de\-|* dit ti-|men- ti- bus|se.|Me- mor erit~in~saeculum~testamenti su- i:|virtutem~operum~suorum~annuntiabit~popu- lo su- o.||
 z8 z4 G4 | A4 (c8 =B4) | c4 c4 c4 c4 | F4 F4 F4 E4 | F8 c6 c2 | c4 c6 c2 c4 | d8 c4 F4- | %34
w: Ut|det il\- *|lis hae- re- di-|ta- tem Gen- ti-|um: o- pe-|ra ma- nu- um|e- ius ve\-|
 F2 F2 F4 G4 D4 | A6 A2 D4 z4 ||[M:3/2] A6 A2 A4 | A6 A2 A4 | B8 A4 | d6 d2 d4 || c4 B4 A6 A2 | %41
w: * ri- tas, et ju-|di- ci- um,|o- pe- ra|ma- nu- um|e- ius|ve- ri- tas,|et ju- di- ci-|
 G16 || F2 G2 B8 c2 B4 | B8 A2 F2 G4 || G8 G4 G4 ||[M:3/2] d8 c4 | d8 G4 | c6 c2 F4 | B6 B2 G4 || %49
w: um.|Fi- de- lia~omnia~mandata~eius,~confirmata~in~saeculum~sae- cu- li:|facta~in~veritate~et~ae- qui- ta- te.|Re- dem- pti-|o- nem|mi- sit|Do- mi- nus|po- pu- lo|
 A8 D4 A4 |[M:4/2][K:treble-8] A8 G4 =B4 ||[M:3/2] =B8 c4 | c8 d4 | B8 B4 | B8 B4 || G4 F4 c8 | %56
w: su- o: man-|da- vit, man-|da- vit|in ae-|ter- num|te- sta-|men- tum su-|
[M:4/2][K:treble-8] F4 c4 c8 | B4 d8 c4- | c4 =B4 c8 | A8 A4 c4- | c4 B4 A8 | G16 || %62
w: um, man- da-|vit in ae\-|* ter- num|te- sta- men\-|* tum su-|um.|
 F2 G2 B8 c2 B4 | B8 A2 F2 G4 || B6 B2 A4 =B4 | c8 c4 c4- | c2 c2 c4 d4 d4 ||[M:3/2] B6 B2 B4- | %68
w: San- ctum et~terribile~nomen e- ius.|Initium~sapientiae~timor Do- mi- ni:|In- tel- le- ctus|bo- nus o\-|* mni- bus fa- ci-|en- ti- bus|
 B4 c8 | B8 d4 | c6 c2 c4 | =B8 c4 |[M:3/2][K:treble-8] c4 =B4 c4 | F6 F2 G4- | G4 A6 A2 | D8 B4 | %76
w: * e-|um: lau-|da- ti- o|e- ius|ma- net in|sae- cu- lum|* sae- cu-|li, lau-|
 A6 A2 A4 | d8 c4 | c4 c4 c4 | d6 d2 c4- | c4 A6 A2 | G16 || F2 G2 B8 c2 c2 B4 | B8 A2 F2 G4 || %84
w: da- ti- o|e- ius|ma- net in|sae- cu- lum|* sae- cu-|li.|Glo- ri- a~Patri~et Fi- li- o,|et~Spiritu- i San- cto:|
 B12 B4 | A8 A4 =B4- | B4 c4 c6 c2 | B4 d4 d4 d4- | d4 ^c4 d8 | d4 d4 G4 G2 G2 | %90
w: Si- cut|e- rat in|* prin- ci- pi-|o, et nunc, et|* sem- per,|et in sae- cu- la|
[M:4/2][K:treble-8] c4 F4 B4 d4 | c8 F8 | c4 c4 c4 c2 c2 | c4 d4 B4 B4 | A8 G16 |] %95
w: sae- cu- lo- rum,|A- men,|et in sae- cu- la|sae- cu- lo- rum,|A- men.|
V:4
 z18 | z16 ||[K:F][M:4/2][K:bass] G,8 G,4 _E,4- | E,2 _E,2 G,4 F,6 F,2 | B,,4 B,8 B,4 | %5
w: ||Ma- gna o\-|* pe- ra Do- mi-|ni: ex- qui-|
 F,8 F,4 D,4 | G,8 D,4 D,4- | D,4 D,4 _E,4 C,4 | D,8 G,,16 || z18 | z16 || G,4 G,6 G,2 C,4 | %12
w: si- ta in|o- mnes vo\-|* lun- ta- tes|e- ius.|||Me- mo- ri- am|
 F,8 B,,4 B,4- | B,4 A,4 B,6 B,2 | G,4 G,4 A,8 | D,8 z4 B,,4 | F,6 F,2 F,4 D,4 | %17
w: fe- cit mi\-|* ra- bi- li-|um su- o-|rum, mi-|se- ri- cors et|
[M:4/2] _E,4 C,4 B,,8 | F,4 G,8 C,4 | D,8 z4 D,4- | D,4 G,4 F,8 | D,4 D,4 (_E,6 D,2 | %22
w: mi- se- ra-|tor Do- mi-|nus: e\-|* scam de-|dit ti- men\- *|
 C,4) G,,4 D,8 | G,,16 || z18 | z16 ||[M:4/2] z16 | z8 G,8 | C,8 D,8 | C,4 C,4 C,4 A,,4 | %30
w: * ti- bus|se.||||Ut|det il-|lis hae- re- di-|
 B,,4 A,,4 G,,6 G,,2 | F,,8 F,6 F,2 | F,4 E,6 E,2 F,4 | B,,8 F,8 | z16 | z16 || %36
w: ta- tem Gen- ti-|um: o- pe-|ra ma- nu- um|e- ius,|||
[M:3/2] D,6 D,2 D,4 | ^C,6 C,2 D,4 | G,,8 D,4 | B,,6 B,,2 B,,4 || C,4 G,,4 D,6 D,2 | G,,16 || z18 | %43
w: o- pe- ra|ma- nu- um|e- ius|ve- ri- tas,|et ju- di- ci-|um.||
 z16 || z16 ||[M:3/2] z12 | z12 | z12 | z12 || z8 z4 D,4 |[M:4/2] D,8 G,,4 G,4 ||[M:3/2] G,8 C,4 | %52
w: ||||||Man-|da- vit, man-|da- vit|
 F,8 D,4 | _E,8 B,,4- | B,,4 z8 || z16 |[M:4/2] z4 F,4 F,8 | B,,4 B,8 F,4 | G,8 C,4 F,4- | %59
w: in ae-|ter- num,|||man- da-|vit in ae-|ter- num te\-|
 F,4 F,4 D,4 C,4 | D,16 | G,,16 || z18 | z16 || G,6 G,2 D,4 G,4 | C,8 C,4 F,4- | %66
w: * sta- men- tum|su-|um.|||In- tel- le- ctus|bo- nus o\-|
 F,2 F,2 F,4 B,,4 B,,4 ||[M:3/2] _E,6 E,2 G,4- | G,4 F,8 | B,,8 B,4 | F,6 F,2 F,4 | G,8 C,4 | %72
w: * mni- bus fa- ci-|en- ti- bus|* e-|um: lau-|da- ti- o|e- ius,|
[M:3/2] z12 | z12 | z12 | z4 z4 B,,4 | F,6 F,2 F,4 | G,8 C,4 | F,4 E,4 F,4 | B,,6 B,,2 C,4- | %80
w: |||lau-|da- ti- o|e- ius|ma- net in|sae- cu- lum|
 C,4 D,6 D,2 | G,,16 || z20 | z16 || G,12 G,4 | D,8 D,4 G,4- | G,4 C,4 F,6 F,2 | B,,4 B,4 B,4 G,4 | %88
w: * sae- cu-|li.|||Si- cut|e- rat in|* prin- ci- pi-|o, et nunc, et|
 A,8 D,8- | D,8 z8 |[M:4/2] z16 | z16 | F,4 F,4 C,4 C,2 C,2 | F,4 B,,4 (_E,2 F,2) G,4 | %94
w: sem- per,||||et in sae- cu- la|sae- cu- lo\- * rum,|
 D,8 G,,16 |] %95
w: A- men.|

